src/16/actions/filename-title-amarok.svg

<svg xmlns="http://www.w3.org/2000/svg" width="16" height="16"><defs><style id="current-color-scheme" type="text/css"></style></defs><path d="M4 1c-1.108 0-2 .892-2 2v10c0 1.108.892 2 2 2h8c1.108 0 2-.892 2-2V3c0-1.108-.892-2-2-2H4zm1 2h6v2H5V3z" fill="currentColor" color="#565656"/></svg>

<svg xmlns="http://www.w3.org/2000/svg" width="16" height="16" viewBox="0 0 16 16">
 <defs>
  <style id="current-color-scheme" type="text/css">
   .ColorScheme-Text { color:#565656; } .ColorScheme-Highlight { color:#5294e2; }
  </style>
 </defs>
 <path style="fill:currentColor" class="ColorScheme-Text" d="M 4 1 C 2.892 1 2 1.892 2 3 L 2 13 C 2 14.108 2.892 15 4 15 L 12 15 C 13.108 15 14 14.108 14 13 L 14 3 C 14 1.892 13.108 1 12 1 L 4 1 z M 5 3 L 11 3 L 11 5 L 5 5 L 5 3 z"/>
</svg>
